icons/24x24_rocket_outline.svg

<svg width="24" height="24" viewBox="0 0 24 24" fill="none" xmlns="http://www.w3.org/2000/svg">
<path fill-rule="evenodd" clip-rule="evenodd" d="M12.5151 3.66424L11.1713 5.02615L5.90252 5.9799C5.50108 6.05257 5.13126 6.2482 4.84291 6.54044L2.64225 8.77077C2.05809 9.3628 2.05809 10.3227 2.64225 10.9147L4.35427 12.6498C4.84585 13.148 5.59445 13.227 6.1675 12.8867L11.2715 18.0594C10.9357 18.6402 11.0136 19.3989 11.5052 19.8971L13.2172 21.6322C13.8014 22.2242 14.7485 22.2242 15.3326 21.6322L17.5333 19.4019C17.8217 19.1096 18.0147 18.7348 18.0864 18.328L19.0275 12.988L20.3712 11.6262C22.3527 9.61795 23.295 6.78694 22.9186 3.9726L22.8841 3.71473C22.7034 2.36341 21.6547 1.30063 20.3214 1.11746L20.0669 1.08251C17.29 0.701035 14.4967 1.656 12.5151 3.66424ZM20.9077 3.98623C20.8475 3.53579 20.4979 3.18153 20.0535 3.12048L19.799 3.08552C17.6473 2.78993 15.4829 3.52603 13.9428 5.07603L10.1149 8.95553L8.70204 7.52367L8.69869 7.52706L6.2532 7.96974L4.40511 9.84274L5.41195 10.8632L7.31718 8.93225L8.7275 10.3616L7.61202 11.4921L12.6475 16.5954L13.763 15.4649L15.1733 16.8942L13.268 18.8251L14.2749 19.8456L16.123 17.9726L16.5593 15.4973L16.5644 15.492L15.1503 14.0588L18.9609 10.1969C20.5021 8.63492 21.235 6.43303 20.9422 4.2441L20.9077 3.98623Z" fill="#1A1C20"/>
<path d="M18.0995 8.09043C17.5154 8.68247 16.5683 8.68247 15.9841 8.09043C15.3999 7.4984 15.3999 6.53852 15.9841 5.94648C16.5683 5.35445 17.5154 5.35445 18.0995 5.94648C18.6837 6.53852 18.6837 7.4984 18.0995 8.09043Z" fill="#1A1C20"/>
<path d="M5.11266 14.8429C5.5021 14.4482 6.13351 14.4482 6.52295 14.8429C6.91239 15.2375 6.91239 15.8775 6.52295 16.2722L3.70237 19.1307C3.31293 19.5254 2.68152 19.5254 2.29208 19.1307C1.90264 18.7361 1.90264 18.0961 2.29208 17.7015L5.11266 14.8429Z" fill="#1A1C20"/>
<path d="M7.22805 18.4161C7.61749 18.0214 8.2489 18.0214 8.63834 18.4161C9.02778 18.8108 9.02778 19.4507 8.63834 19.8454L5.81776 22.704C5.42832 23.0987 4.79691 23.0987 4.40747 22.704C4.01803 22.3093 4.01803 21.6694 4.40747 21.2747L7.22805 18.4161Z" fill="#1A1C20"/>
</svg>

<svg width="24" height="24" fill="none" xmlns="http://www.w3.org/2000/svg"><path fill-rule="evenodd" clip-rule="evenodd" d="m12.515 3.664-1.344 1.362-5.268.954a1.986 1.986 0 0 0-1.06.56l-2.2 2.23a1.53 1.53 0 0 0 0 2.145l1.711 1.735c.492.498 1.24.577 1.814.237l5.103 5.172a1.534 1.534 0 0 0 .234 1.838l1.712 1.735a1.482 1.482 0 0 0 2.116 0l2.2-2.23a2.03 2.03 0 0 0 .553-1.074l.942-5.34 1.343-1.362a9.171 9.171 0 0 0 2.548-7.653l-.035-.258a3.012 3.012 0 0 0-2.563-2.598l-.254-.034a8.902 8.902 0 0 0-7.552 2.581Zm8.393.322c-.06-.45-.41-.804-.855-.866l-.254-.034a6.924 6.924 0 0 0-5.856 1.99l-3.828 3.88-1.413-1.432-.003.003-2.446.443-1.848 1.873 1.007 1.02 1.905-1.93 1.41 1.429-1.115 1.13 5.036 5.103 1.115-1.13 1.41 1.43-1.905 1.93 1.007 1.02 1.848-1.872.436-2.476.005-.005-1.414-1.433 3.81-3.862a7.133 7.133 0 0 0 1.982-5.953l-.034-.258Z" fill="#000"/><path d="M18.1 8.09a1.482 1.482 0 0 1-2.116 0 1.53 1.53 0 0 1 0-2.144 1.482 1.482 0 0 1 2.115 0 1.53 1.53 0 0 1 0 2.144ZM5.113 14.843a.988.988 0 0 1 1.41 0 1.02 1.02 0 0 1 0 1.43l-2.82 2.858a.988.988 0 0 1-1.41 0 1.02 1.02 0 0 1 0-1.43l2.82-2.858Zm2.115 3.573a.988.988 0 0 1 1.41 0 1.02 1.02 0 0 1 0 1.43l-2.82 2.858a.988.988 0 0 1-1.41 0 1.02 1.02 0 0 1 0-1.43l2.82-2.858Z" fill="#000"/></svg>
